X: 2
T: Auld Grey Cat, The
T: Old Gray Cat, The
I: RJ R-82 E Dor reel Set 9, 18, 24
M: C|
Z: Transcribed to abc by Mary Lou Knack
R: reel
P: E Dorian
K: EDor
|:\
"Em"e2e2 E3F | GFGA BABc | "D"d2d2 D3E | FAdB AFED |\
"Em"e2e2 E3F | EFGA BABc |
"D"dcBA "B7"BAGF |[1 "Em"E4 e3^d :|[2 "Em"E4 e3 |: d |\
"Em"B2e2 e3d | Bdef gfed |
"D"A2d2 d3B | ABde fedf |\
"Em"e2B2 g2B2 | "Em"a2B2 "B7"b3a | "Am"gfed "B7"BAB^d | "Em"e4 e4 :|


